assets/icons/utility/side_list.svg

<?xml version="1.0"?><svg xmlns="http://www.w3.org/2000/svg" width="52" height="52" viewBox="0 0 52 52"><path fill="#fff" d="m48.5 4h-27c-0.8 0-1.5 0.7-1.5 1.5v41c0 0.8 0.7 1.5 1.5 1.5h27c0.8 0 1.5-0.7 1.5-1.5v-41c0-0.8-0.7-1.5-1.5-1.5z m-34 0h-11c-0.8 0-1.5 0.7-1.5 1.5v5c0 0.8 0.7 1.5 1.5 1.5h11c0.8 0 1.5-0.7 1.5-1.5v-5c0-0.8-0.7-1.5-1.5-1.5z m0 12h-11c-0.8 0-1.5 0.7-1.5 1.5v5c0 0.8 0.7 1.5 1.5 1.5h11c0.8 0 1.5-0.7 1.5-1.5v-5c0-0.8-0.7-1.5-1.5-1.5z m0 12h-11c-0.8 0-1.5 0.7-1.5 1.5v5c0 0.8 0.7 1.5 1.5 1.5h11c0.8 0 1.5-0.7 1.5-1.5v-5c0-0.8-0.7-1.5-1.5-1.5z m0 12h-11c-0.8 0-1.5 0.7-1.5 1.5v5c0 0.8 0.7 1.5 1.5 1.5h11c0.8 0 1.5-0.7 1.5-1.5v-5c0-0.8-0.7-1.5-1.5-1.5z"></path></svg>

<svg xmlns="http://www.w3.org/2000/svg" x="0px" y="0px"
	 width="52px" height="52px" viewBox="0 0 52 52" enable-background="new 0 0 52 52" xml:space="preserve">
<path fill="#FFFFFF" d="M48.5,4h-27C20.7,4,20,4.7,20,5.5v41c0,0.8,0.7,1.5,1.5,1.5h27c0.8,0,1.5-0.7,1.5-1.5v-41
	C50,4.7,49.3,4,48.5,4z"/>
<path fill="#FFFFFF" d="M14.5,4h-11C2.7,4,2,4.7,2,5.5v5C2,11.3,2.7,12,3.5,12h11c0.8,0,1.5-0.7,1.5-1.5v-5C16,4.7,15.3,4,14.5,4z"
	/>
<path fill="#FFFFFF" d="M14.5,16h-11C2.7,16,2,16.7,2,17.5v5C2,23.3,2.7,24,3.5,24h11c0.8,0,1.5-0.7,1.5-1.5v-5
	C16,16.7,15.3,16,14.5,16z"/>
<path fill="#FFFFFF" d="M14.5,28h-11C2.7,28,2,28.7,2,29.5v5C2,35.3,2.7,36,3.5,36h11c0.8,0,1.5-0.7,1.5-1.5v-5
	C16,28.7,15.3,28,14.5,28z"/>
<path fill="#FFFFFF" d="M14.5,40h-11C2.7,40,2,40.7,2,41.5v5C2,47.3,2.7,48,3.5,48h11c0.8,0,1.5-0.7,1.5-1.5v-5
	C16,40.7,15.3,40,14.5,40z"/>
</svg>
